!!!OTL: Kranzsingen
!!!ARE: Europa, Mitteleuropa, Deutschland
!!!SCT: A0271D
!!!YEM: Copyright 1995, estate of Helmut Schaffrath.
**kern
*ICvox
*Ivox
*M4/2
*k[b-]
*F:
{4f
=1
2cc
2cc
2dd
2cc
=2
2a
4b-
4g
2a
4r}
{4f
=3
2cc
2cc
2cc
4a
4b-
=4
4cc
4a
2g
2f
4r}
{4c
=5
2f
2g
2a
2a
=6
2f
2g
2a
4r}
{4f
=7
2cc
2cc
2cc
4a
4b-
=8
4cc
4a
2g
2f
4r}
==
!!!AGN: Romanze, Ballade, Lied
!! M. Praetorius Mus. Sion. VI 1609 No. 27.
!!!ONB: ESAC (Essen Associative Code) Database: ALTDEU
!!!AMT: simple quadruple
!!!AIN: vox
!!!EED: Helmut Schaffrath
!!!EEV: 1.0
*-
